TileServer und Tiles/svg/9/44_4.svg

<?xml version='1.0' encoding='UTF-8' standalone='no'?>
<svg xmlns="http://www.w3.org/2000/svg" width="497pt" viewBox="0 0 497 279" xmlns:xlink="http://www.w3.org/1999/xlink" height="279pt">
 <defs style="stroke:none;" overflow="visible">
  <path id="glyph0-6" d="M 2.875 -3.890625 L 7.28125 -3.890625 L 7.28125 -2.796875 L 2.875 -2.796875 Z M 7.28125 -7.234375 L 7.28125 -6.171875 L 2.875 -6.171875 L 2.875 -7.234375 Z M 2.875 -5.546875 L 7.28125 -5.546875 L 7.28125 -4.515625 L 2.875 -4.515625 Z M 9.421875 -2.125 L 9.421875 -2.796875 L 8.015625 -2.796875 L 8.015625 -7.890625 L 2.15625 -7.890625 L 2.15625 -2.796875 L 0.609375 -2.796875 L 0.609375 -2.125 L 3.40625 -2.125 C 2.796875 -1.421875 2.125 -0.8125 1.90625 -0.640625 C 1.625 -0.421875 1.40625 -0.28125 1.203125 -0.25 C 1.296875 -0.046875 1.40625 0.3125 1.4375 0.484375 C 1.8125 0.34375 2.34375 0.328125 7.890625 0.046875 C 8.140625 0.3125 8.34375 0.5625 8.515625 0.765625 L 9.15625 0.421875 C 8.65625 -0.21875 7.625 -1.234375 6.75 -1.9375 L 6.125 -1.65625 C 6.53125 -1.328125 6.953125 -0.9375 7.34375 -0.546875 L 2.546875 -0.34375 C 3.15625 -0.828125 3.796875 -1.453125 4.375 -2.125 Z M 9.421875 -2.125 "/>
  <path id="glyph0-5" d="M 3.109375 -7.203125 C 2.734375 -7.5625 1.9375 -8.015625 1.3125 -8.28125 L 0.90625 -7.734375 C 1.546875 -7.453125 2.3125 -6.96875 2.6875 -6.625 Z M 2.65625 -4.609375 C 2.25 -4.9375 1.453125 -5.359375 0.8125 -5.609375 L 0.40625 -5.046875 C 1.0625 -4.78125 1.84375 -4.328125 2.234375 -3.984375 Z M 1.34375 0.625 C 1.890625 -0.3125 2.546875 -1.5625 3.046875 -2.625 L 2.484375 -3.078125 C 1.9375 -1.9375 1.203125 -0.625 0.703125 0.15625 Z M 4.71875 -1.578125 L 4.71875 -2.328125 L 8.109375 -2.328125 L 8.109375 -1.578125 Z M 8.109375 -3.59375 L 8.109375 -2.859375 L 4.71875 -2.859375 L 4.71875 -3.59375 Z M 8.8125 -4.171875 L 4.03125 -4.171875 L 4.03125 0.734375 L 4.71875 0.734375 L 4.71875 -1.046875 L 8.109375 -1.046875 L 8.109375 -0.078125 C 8.109375 0.046875 8.0625 0.09375 7.921875 0.09375 C 7.78125 0.09375 7.3125 0.09375 6.796875 0.09375 C 6.90625 0.265625 7 0.546875 7.015625 0.71875 C 7.734375 0.71875 8.1875 0.703125 8.453125 0.609375 C 8.734375 0.515625 8.8125 0.3125 8.8125 -0.0625 Z M 6.65625 -5.296875 L 6.65625 -6 L 9.015625 -6 L 9.015625 -6.546875 L 6.65625 -6.546875 L 6.65625 -7.171875 L 9.25 -7.171875 L 9.25 -7.71875 L 6.65625 -7.71875 L 6.65625 -8.375 L 5.90625 -8.375 L 5.90625 -7.71875 L 3.4375 -7.71875 L 3.4375 -7.171875 L 5.90625 -7.171875 L 5.90625 -6.546875 L 3.6875 -6.546875 L 3.6875 -6 L 5.90625 -6 L 5.90625 -5.296875 L 3.109375 -5.296875 L 3.109375 -4.734375 L 9.578125 -4.734375 L 9.578125 -5.296875 Z M 6.65625 -5.296875 "/>
  <path id="glyph0-4" d="M 2.8125 -4.515625 C 2.390625 -4.84375 1.515625 -5.296875 0.84375 -5.546875 L 0.453125 -4.984375 C 1.15625 -4.703125 1.984375 -4.234375 2.40625 -3.875 Z M 1.3125 0.65625 C 1.9375 -0.265625 2.6875 -1.515625 3.25 -2.5625 L 2.734375 -3.0625 C 2.09375 -1.9375 1.265625 -0.625 0.703125 0.125 Z M 0.921875 -7.71875 C 1.625 -7.4375 2.46875 -6.953125 2.90625 -6.59375 L 3.3125 -7.203125 C 2.890625 -7.5625 2.015625 -8.015625 1.3125 -8.28125 Z M 6.84375 -0.34375 L 6.84375 -3.40625 L 9.234375 -3.40625 L 9.234375 -4.109375 L 6.84375 -4.109375 L 6.84375 -6.875 L 9.359375 -6.875 L 9.359375 -7.578125 L 3.796875 -7.578125 L 3.796875 -6.875 L 6.09375 -6.875 L 6.09375 -4.109375 L 3.9375 -4.109375 L 3.9375 -3.40625 L 6.09375 -3.40625 L 6.09375 -0.34375 L 3.359375 -0.34375 L 3.359375 0.359375 L 9.484375 0.359375 L 9.484375 -0.34375 Z M 6.84375 -0.34375 "/>
  <path id="glyph0-3" d="M 9.484375 -6.265625 L 9.484375 -6.984375 L 5.359375 -6.984375 L 5.359375 -8.40625 L 4.578125 -8.40625 L 4.578125 -6.984375 L 0.546875 -6.984375 L 0.546875 -6.265625 L 4.59375 -6.265625 L 4.59375 -4.90625 L 1.5625 -4.90625 L 1.5625 -0.46875 L 2.296875 -0.46875 L 2.296875 -4.203125 L 4.59375 -4.203125 L 4.59375 0.796875 L 5.34375 0.796875 L 5.34375 -4.203125 L 7.796875 -4.203125 L 7.796875 -1.40625 C 7.796875 -1.28125 7.734375 -1.234375 7.5625 -1.21875 C 7.390625 -1.21875 6.796875 -1.21875 6.125 -1.234375 C 6.21875 -1.03125 6.34375 -0.734375 6.375 -0.515625 C 7.21875 -0.515625 7.78125 -0.515625 8.125 -0.640625 C 8.453125 -0.765625 8.5625 -0.984375 8.5625 -1.40625 L 8.5625 -4.90625 L 5.34375 -4.90625 L 5.34375 -6.265625 Z M 9.484375 -6.265625 "/>
  <path id="glyph0-2" d="M 1.796875 -6.5625 L 8.265625 -6.5625 L 8.265625 -5.21875 L 9.046875 -5.21875 L 9.046875 -7.28125 L 5.375 -7.28125 L 5.375 -8.375 L 4.59375 -8.375 L 4.59375 -7.28125 L 1.0625 -7.28125 L 1.0625 -5.21875 L 1.796875 -5.21875 Z M 9.265625 -4.59375 L 0.765625 -4.59375 L 0.765625 -3.875 L 4.609375 -3.875 L 4.609375 -0.203125 C 4.609375 -0.0625 4.5625 -0.015625 4.359375 -0.015625 C 4.15625 0 3.453125 0 2.703125 -0.015625 C 2.8125 0.203125 2.953125 0.53125 2.984375 0.75 C 3.890625 0.765625 4.515625 0.75 4.875 0.625 C 5.25 0.515625 5.375 0.28125 5.375 -0.203125 L 5.375 -3.875 L 9.265625 -3.875 Z M 9.265625 -4.59375 "/>
  <path id="glyph0-1" d="M 2.59375 -2.609375 C 2.1875 -1.671875 1.484375 -0.734375 0.75 -0.125 C 0.9375 -0.015625 1.234375 0.21875 1.375 0.359375 C 2.09375 -0.3125 2.859375 -1.375 3.328125 -2.421875 Z M 8.703125 -3.40625 L 8.703125 -4.125 L 5.8125 -4.125 L 5.8125 -5.59375 L 5.078125 -5.59375 L 5.078125 -4.125 L 2.71875 -4.125 C 3.1875 -4.78125 3.671875 -5.546875 4.109375 -6.34375 L 9.125 -6.34375 L 9.125 -7.046875 L 4.484375 -7.046875 C 4.671875 -7.390625 4.84375 -7.75 4.984375 -8.09375 L 4.21875 -8.421875 C 4.03125 -7.953125 3.8125 -7.484375 3.59375 -7.046875 L 0.8125 -7.046875 L 0.8125 -6.34375 L 3.21875 -6.34375 C 2.8125 -5.625 2.453125 -5.046875 2.28125 -4.8125 C 1.96875 -4.375 1.765625 -4.09375 1.53125 -4.03125 C 1.625 -3.8125 1.765625 -3.4375 1.8125 -3.265625 C 1.90625 -3.359375 2.296875 -3.40625 2.875 -3.40625 L 5.078125 -3.40625 L 5.078125 -0.265625 C 5.078125 -0.125 5.046875 -0.078125 4.875 -0.0625 C 4.71875 -0.0625 4.1875 -0.0625 3.609375 -0.078125 C 3.734375 0.125 3.859375 0.46875 3.890625 0.6875 C 4.59375 0.6875 5.109375 0.65625 5.421875 0.53125 C 5.71875 0.40625 5.8125 0.1875 5.8125 -0.25 L 5.8125 -3.40625 Z M 6.640625 -2.3125 C 7.421875 -1.546875 8.3125 -0.453125 8.703125 0.234375 L 9.375 -0.125 C 8.953125 -0.828125 8.03125 -1.875 7.25 -2.625 Z M 6.640625 -2.3125 "/>
  <path id="glyph0-0" d="M 1 1.203125 L 9 1.203125 L 9 -8.796875 L 1 -8.796875 Z M 5 -4.203125 L 1.8125 -8.296875 L 8.1875 -8.296875 Z M 5.3125 -3.796875 L 8.5 -7.890625 L 8.5 0.296875 Z M 1.8125 0.703125 L 5 -3.390625 L 8.1875 0.703125 Z M 1.5 -7.890625 L 4.6875 -3.796875 L 1.5 0.296875 Z M 1.5 -7.890625 "/>
 </defs>
 <image id="image26" width="497" xlink:href="svg/9/44_4.jpg" height="279"/>
 <g>
  <path d="m 158.64844,213.55859 c -0.42188,-0.32812 -1.29688,-0.78125 -1.96875,-1.03125 l -0.39063,0.5625 c 0.70313,0.28125 1.53125,0.75 1.95313,1.10938 z m -1.5,5.17188 c 0.625,-0.92188 1.375,-2.17188 1.9375,-3.21875 l -0.51563,-0.5 c -0.64062,1.125 -1.46875,2.4375 -2.03125,3.1875 z m -0.39063,-8.375 c 0.70313,0.28125 1.54688,0.76562 1.98438,1.125 l 0.40625,-0.60938 c -0.42188,-0.35937 -1.29688,-0.8125 -2,-1.07812 z m 5.92188,7.375 v -3.0625 h 2.39062 v -0.70313 h -2.39062 v -2.76562 h 2.51562 v -0.70313 h -5.5625 v 0.70313 h 2.29688 v 2.76562 h -2.15625 v 0.70313 h 2.15625 v 3.0625 h -2.73438 v 0.70312 h 6.125 v -0.70312 z m 0,0" transform=" rotate(  340 170.837 215.073) " style="fill:none;stroke:#ffffff;stroke-width:3;stroke-linecap:butt;stroke-linejoin:round;stroke-miterlimit:10;stroke-opacity:0.6"/>
  <path d="m 168.94531,210.87109 c -0.375,-0.35937 -1.17187,-0.8125 -1.79687,-1.07812 l -0.40625,0.54687 c 0.64062,0.28125 1.40625,0.76563 1.78125,1.10938 z m -0.45312,2.59375 c -0.40625,-0.32812 -1.20313,-0.75 -1.84375,-1 l -0.40625,0.5625 c 0.65625,0.26563 1.4375,0.71875 1.82812,1.0625 z m -1.3125,5.23438 c 0.54687,-0.9375 1.20312,-2.1875 1.70312,-3.25 l -0.5625,-0.45313 c -0.54687,1.14063 -1.28125,2.45313 -1.78125,3.23438 z m 3.375,-2.20313 v -0.75 h 3.39062 v 0.75 z m 3.39062,-2.01562 v 0.73437 h -3.39062 v -0.73437 z m 0.70313,-0.57813 h -4.78125 v 4.90625 h 0.6875 v -1.78125 h 3.39062 v 0.96875 c 0,0.125 -0.0469,0.17188 -0.1875,0.17188 -0.14062,0 -0.60937,0 -1.125,0 0.10938,0.17187 0.20313,0.45312 0.21875,0.625 0.71875,0 1.17188,-0.0156 1.4375,-0.10938 0.28125,-0.0937 0.35938,-0.29687 0.35938,-0.67187 z m -2.15625,-1.125 v -0.70312 h 2.35937 v -0.54688 h -2.35937 v -0.625 h 2.59375 v -0.54687 h -2.59375 v -0.65625 h -0.75 v 0.65625 h -2.46875 v 0.54687 h 2.46875 v 0.625 h -2.21875 v 0.54688 h 2.21875 v 0.70312 h -2.79688 v 0.5625 h 6.46875 v -0.5625 z m 0,0" transform=" rotate(  340 170.837 215.073) " style="fill:none;stroke:#ffffff;stroke-width:3;stroke-linecap:butt;stroke-linejoin:round;stroke-miterlimit:10;stroke-opacity:0.6"/>
  <path d="m 178.71094,214.18359 h 4.40625 v 1.09375 h -4.40625 z m 4.40625,-3.34375 v 1.0625 h -4.40625 v -1.0625 z m -4.40625,1.6875 h 4.40625 v 1.03125 h -4.40625 z m 6.54687,3.42188 v -0.67188 h -1.40625 v -5.09375 h -5.85937 v 5.09375 h -1.54688 v 0.67188 h 2.79688 c -0.60938,0.70312 -1.28125,1.3125 -1.5,1.48437 -0.28125,0.21875 -0.5,0.35938 -0.70313,0.39063 0.0937,0.20312 0.20313,0.5625 0.23438,0.73437 0.375,-0.14062 0.90625,-0.15625 6.45312,-0.4375 0.25,0.26563 0.45313,0.51563 0.625,0.71875 l 0.64063,-0.34375 c -0.5,-0.64062 -1.53125,-1.65625 -2.40625,-2.35937 l -0.625,0.28125 c 0.40625,0.32812 0.82812,0.71875 1.21875,1.10937 l -4.79688,0.20313 c 0.60938,-0.48438 1.25,-1.10938 1.82813,-1.78125 z m 0,0" transform=" rotate(  340 170.837 215.073) " style="fill:none;stroke:#ffffff;stroke-width:3;stroke-linecap:butt;stroke-linejoin:round;stroke-miterlimit:10;stroke-opacity:0.6"/>
  <g transform=" rotate(  340 170.837 215.073) " style="fill:#212121;fill-opacity:1">
   <use xlink:href="#glyph0-4" y="218.07339" x="155.83714"/>
   <use xlink:href="#glyph0-5" y="218.07339" x="165.83714"/>
   <use xlink:href="#glyph0-6" y="218.07339" x="175.83714"/>
  </g>
 </g>
</svg>

<svg xmlns="http://www.w3.org/2000/svg" xmlns:xlink="http://www.w3.org/1999/xlink" viewBox="0 0 497 279"> <defs overflow="visible" style="stroke:none">  <path id="c" d="M2.9-3.9h4.4v1.1H2.9Zm4.4-3.3v1H2.9v-1ZM2.9-5.5h4.4v1H2.9Zm6.5 3.4v-.7H8v-5H2.2v4.9H.6v.8h2.8L2-.6l-.8.3a4 4 0 0 1 .2.9C1.8.3 2.4.3 8 0l.5.8.7-.4a17.3 17.3 0 0 0-2.4-2.3l-.8.2L7.3-.5l-4.8.2a14 14 0 0 0 1.9-1.8Zm0 0"/>  <path id="b" d="M3.1-7.2c-.4-.4-1.1-.8-1.8-1l-.3.4c.5.3 1.3.8 1.7 1.1Zm-.4 2.6a8.1 8.1 0 0 0-1.9-1L.4-5c.7.2 1.4.7 1.8 1ZM1.3.6A45 45 0 0 0 3-2.6l-.5-.5A34.2 34.2 0 0 1 .7.2Zm3.4-2.2v-.7h3.4v.7Zm3.4-2v.7H4.7v-.7Zm.7-.6H4v5h.7V-1h3.4v1H6.8l.2.8h1.5c.2-.4.3-.6.3-1ZM6.7-5.3V-6H9v-.5H6.7v-.7h2.5v-.5H6.8v-.7h-.9v.7H3.4v.5H6v.7H3.7v.5h2.2v.7H3.1v.6h6.5v-.6Zm0 0"/>  <path id="a" d="M2.8-4.5a8.9 8.9 0 0 0-2-1L.5-5l2 1.1ZM1.3.7l2-3.3-.7-.4A35 35 0 0 1 .7.1ZM1-7.7c.6.3 1.5.7 2 1.1l.3-.6c-.3-.4-1.3-.8-2-1ZM7-.3v-3.1h2.1v-.7H6.8V-7h2.6v-.6H3.8v.7h2.3V-4H3.9v.6h2.2v3H3.4v.9h6v-.8Zm-.2 0"/>  <path d="M9.5-6.3V-7H5.4v-1.4h-.8V-7h-4v.7h3.9v1.4H1.6v4.4h.7v-3.7h2.3v5h.7v-5h2.5v2.8c0 .1 0 .2-.2.2H6l.4.7L8-.6c.5-.2.6-.4.6-.8V-5H5.3v-1.3Zm-7.7-.3h6.5v1.4H9v-2H5.4v-1.3h-.8v1.2H1v2h.8Zm7.5 2H.8v.7h3.8v3.7c0 .1 0 .2-.2.2H2.7c.1.2.3.5.3.8.9 0 1.5 0 1.9-.2.3 0 .5-.3.5-.8v-3.7h3.9Zm-6.7 2A7 7 0 0 1 .7-.1a4 4 0 0 1 .7.5 9.2 9.2 0 0 0 2-2.8Zm6.1-.8v-.7H5.8v-1.5h-.7V-4H2.7l1.4-2.3h5V-7H4.5L5-8l-.8-.5L3.6-7H.8v.7h2.4c-.4.7-.7 1.3-1 1.5-.2.4-.3.7-.6.8a8 8 0 0 1 .2.7l1-.1h2.4v3.1C5 0 5 0 4.9 0H3.6l.4.7c.6 0 1 0 1.4-.2.3 0 .4-.3.4-.8v-3.1Zm-2 1A14 14 0 0 1 8.6.3l.8-.3a14.7 14.7 0 0 0-2.2-2.6ZM1 1.2h8v-10H1Zm4-5.4L1.8-8.3h6.4Zm.3.4 3.2-4v8ZM1.8.7l3.2-4L8.2.6Zm-.3-8.6 3.2 4.1L1.5.3Zm0 0"/> </defs> <image xlink:href="svg/9/44_4.jpg" width="497" height="279"/> <path d="M158.6 213.6a8.9 8.9 0 0 0-2-1l-.2.4c.6.4 1.4.8 1.9 1.2zm-1.5 5.1c.7-.9 1.4-2.1 2-3.2l-.5-.5a35 35 0 0 1-2 3.2zm-.3-8.3c.7.2 1.5.6 2 1l.2-.4c-.3-.5-1-1-1.9-1.2zm5.9 7.3v-3h2.3v-.7h-2.3v-2.8h2.5v-.7h-5.6v.7h2.4v2.8h-2.2v.7h2.1v3h-2.7v.7h6.1v-.7zm6.3-6.8c-.5-.4-1.3-.9-2-1.1l-.3.5c.7.3 1.4.8 1.8 1.1zm-.6 2.6a8.1 8.1 0 0 0-1.8-1l-.4.5 1.9 1zm-1.2 5.2a45 45 0 0 0 1.7-3.3l-.6-.4a34.2 34.2 0 0 1-1.8 3.2zm3.4-2.2v-.8h3.3v.8zm3.3-2v.7h-3.3v-.7zm.7-.6H170v5h.6V217h3.3v1l-.1.2h-1.2l.4.6 1.3-.1c.3-.1.3-.3.3-.7zm-2.1-1.1v-.8h2.4v-.5h-2.4v-.5h2.5v-.6h-2.5v-.7h-.8v.7h-2.4v.5h2.4v.6h-2.2v.6h2.2v.7H169v.5h6.4v-.5zm6.2 1.4h4.4v1h-4.4zm4.4-3.4v1.2h-4.4v-1.1zm-4.4 1.7h4.4v1h-4.4zm6.6 3.5v-.7h-1.4v-5.1h-6v5h-1.4v.8h2.7c-.6.7-1.2 1.3-1.5 1.4-.2.3-.5.4-.7.4a4 4 0 0 1 .3.8c.3-.2.9-.2 6.4-.6l.7.8.6-.3a17.3 17.3 0 0 0-2.4-2.4l-.6.3 1.2 1.1-4.8.2a14 14 0 0 0 1.8-1.7zm0 0" style="fill:none;stroke:#fff;stroke-width:3;stroke-linecap:butt;stroke-linejoin:round;stroke-miterlimit:10;stroke-opacity:.6" transform=" rotate(  340 170.837 215.073) "/> <g style="fill:#212121;fill-opacity:1" transform=" rotate(  340 170.837 215.073) ">  <use xlink:href="#a" x="155.8" y="218.1"/>  <use xlink:href="#b" x="165.8" y="218.1"/>  <use xlink:href="#c" x="175.8" y="218.1"/> </g></svg>
